src/pos-icons/folder-clock-outline.svg

<svg height="24" viewBox="0 0 24 24" width="24" xmlns="http://www.w3.org/2000/svg"><path d="m15 12h1.5v4.25l2.86 1.69-.75 1.22-3.61-2.16zm4-4h-16v10h6.29c-.19-.63-.29-1.3-.29-2a7 7 0 0 1 7-7c1.07 0 2.09.24 3 .67zm-16 12c-1.11 0-2-.9-2-2v-12a2 2 0 0 1 2-2h6l2 2h8a2 2 0 0 1 2 2v3.1c1.24 1.26 2 2.99 2 4.9a7 7 0 0 1 -7 7c-2.38 0-4.5-1.19-5.75-3zm13-9a5 5 0 0 0 -5 5 5 5 0 0 0 5 5 5 5 0 0 0 5-5 5 5 0 0 0 -5-5z"/></svg>

<?xml version="1.0" encoding="UTF-8"?><!DOCTYPE svg PUBLIC "-//W3C//DTD SVG 1.1//EN" "http://www.w3.org/Graphics/SVG/1.1/DTD/svg11.dtd"><svg xmlns="http://www.w3.org/2000/svg" xmlns:xlink="http://www.w3.org/1999/xlink" version="1.1" id="mdi-folder-clock-outline" width="24" height="24" viewBox="0 0 24 24"><path d="M15,12H16.5V16.25L19.36,17.94L18.61,19.16L15,17V12M19,8H3V18H9.29C9.1,17.37 9,16.7 9,16A7,7 0 0,1 16,9C17.07,9 18.09,9.24 19,9.67V8M3,20C1.89,20 1,19.1 1,18V6A2,2 0 0,1 3,4H9L11,6H19A2,2 0 0,1 21,8V11.1C22.24,12.36 23,14.09 23,16A7,7 0 0,1 16,23C13.62,23 11.5,21.81 10.25,20H3M16,11A5,5 0 0,0 11,16A5,5 0 0,0 16,21A5,5 0 0,0 21,16A5,5 0 0,0 16,11Z" /></svg>
